X: 1
T:Gan Ainm
M:4/4
L:1/8
R:German
D:Mairead Ni Mhaonaigh/Frankie Kennedy, Ceol Aduaidh
K:D
AFAd f2f2|AFAd f2ef|gfed c2df|(3efe (3dcB A2FG|\
AFAd f2f2|AFAd f2ef|gfed cABc|1d2~f2d2FG:|2d2~f2d2d2|:\
fgaf d2d2|fgaf d2ef|gfed c2df|(3efe (3dcB A2A2|\
fgaf d2d2|fgaf d2ef|gfed cABc|d2~f2d2:|
